X:25
T:Johnny Leary's
Z: id:dc-polka-20
M:2/4
L:1/8
K:D Major
d>B|AF F/G/F/E/|DF FD/F/|AF AF|E2 E3/2|!
[1 B/|AF F/G/F/E/|DF FD/F/|AF/A/ Bc|d2:|!
[2 F/|GE E/F/E/D/|CE E>A|FA Bc|d2|]!
dA|dA/d/ fe|cB/c/ ec|BA B>c|BA FA|!
dA/d/ fe|cB/c/ ec|BA Bc|d2:|!

